X: 1764
T: The Old Rocking Chair
B: australian traditional tunes wiki
M:6/8
L:1/8
R: Jig
Q: 3/8=100
K:C
V:1 
|:"C"EGE CDE|"F"FAF"Dm"D2c|"G7"BdB GAB|"F"cBA "C"GzG|
"C"EGE CDE|"F"FAF"Dm"D2c|"G7"BdB GAB|"C"ccc c2z:|
|:"C"gcc "F"acc|"C"gcc cBc|"G7"B/c/dB GAB|"C"cea "G"gze/f/|
"C"gcc "F"acc|"C"gcc cBc|"G7"B/c/dB GAB|"C"cccc2G:|
% abcbook-tune_id 6342d53a3ecd37591c2b1ef5


% abcbook-boost 0
% abcbook-tablature 
% abcbook-transpose 
% abcbook-lastupdated 1665324382419
% abcbook-soundfonts 
% abcbook-repeats 1
% NFF Book 2014

